X: 1210
T: Kara Bulutları Kaldır Aradan
C: Sadettin Kaynak
O: Turkey
F: http://compmusic.upf.edu/node/140
N: karcigar--sarki--aksak--kara_bulutlari--sadettin_kaynak
N: makam= karcigar
N: form= sarki
N: usul= aksak = 9/8
M: 9/8
L: 1/16
K: C _2/4B _3/4e ^3/4f 
Q: 1/4=216
%%MIDI tuningsystem comma53
c'16 b2 | ba g16  | c'18 | c'b a8-a2z6  | fg.a2 z4 ga._b2 z6 | \
w:  ARANAĞME  |   |   |   |   | 
de .f2z4ef .g2z6  | 
w:   | 
B2c2 d2e2 g2f2 e2d2 f2 | e12e2 d2c2  | \
w:   |   | 
d2e2 f2g2 f2e2 d2c2 B2 | 
w:   | 
d12c2 B2A2  | A2B2 c2d2 c2B2 B2A2 G2 | \
w:   |   | 
A6 g2f2 g2a2 b2d'2  | c'4 a2b2 c'2c'b c'6 | 
w:   |  *  Ka ra  bu *  *  lut  | 
b2 c'4 b2c'2 b2c'4b2  | c'2{d'}c'b b4 z8-z2 | \
w:  la rı  *  kal *  dır   |  a *  ra *  dan    | 
b2 {c'}baa4z8-z2  | a2{b}ag g4 z8-z2 | 
w:  vay_ *  a *  man   |  vay_ *  a *  man   | 
g2 {a}gff8c'2 b2a2  | a12 g2f2 e2 | e2 edd4z4c2 B2c2  | \
w:  vay_ *  a *  man   |  vay    |  Be ri  *  gel  gön *  lü  | 
d12 e2d2 c2 | 
w:  me   | 
a2 gag2 fgf2 efg2 e2d2  | d8 ggfg a4 z2 | \
w:  çağ *  *  la *  *  ya *  *  nım   |  gel  SAZ  | 
z4f2 g2a4a6  | 
w:  Ne  ka dar  ö  | 
a4 a4 a4 a2{b}a2 g2 | _b2 agg4z8-z2  | \
w:  zen miş  se ni   |  ya ra *  dan    | 
a2gf f4 z8-z2 | g2 f2e4z8-z2  | 
w:  vay_ a *  man   |  vay_ a man   | 
f2e2 d8 a6 | d4z4cc Bcd4z2  | B2c2 d4 z4 e3d cB | \
w:  vay_ a man   |  vay   SAZ  |  Be ri  gel  gön *  lü  | 
c12c2 B2A2  | 
w:  me   | 
f2g2 a4 a4 a6 | a2 c'2b2 a2g2 f2e2 d2c2  | \
w:  çağ *  la ya nım   |  gel   | 
B2c2 d2e2 d2cB d2c2 B2 | 
w:  çağ *  la *  ya *  *  nım   | 
A12z6  | c'16 b2 | ba g16  | c'18 | c'b a8-a2z6  | \
w:  gel   |  ARANAĞME  |   |   |   | 
fg.a2 z4 ga._b2 z6 | 
w:   | 
de .f2z4ef .g2z6  | B2c2 d2e2 g2f2 e2d2 f2 | \
w:   |   | 
e12e2 d2c2  | 
w:   | 
d2e2 f2g2 f2e2 d2c2 B2 | d12c2 B2A2  | \
w:   |   | 
A2B2 c2d2 c2B2 B2A2 G2 | 
w:   | 
A6 g2f2 g2a2 b2d'2  | c'4 a2b2 c'2c'b c'6 | \
w:   |  *  Ka ra  bu *  *  lut  | 
b2 c'4 b2c'2 b2c'4b2  | 
w:  la rı  *  kal *  dır   | 
c'2{d'}c'b b4 z8-z2 | b2 {c'}baa4z8-z2  | \
w:  a *  ra *  dan    |  vay_ *  a *  man   | 
a2{b}ag g4 z8-z2 | g2 {a}gff8c'2 b2a2  | 
w:  vay_ *  a *  man   |  vay_ *  a *  man   | 
a12 g2f2 e2 | e2 edd4z4c2 B2c2  | d12 e2d2 c2 | \
w:  vay    |  Be ri  *  gel  gön *  lü  |  me   | 
a2 gag2 fgf2 efg2 e2d2  | 
w:  çağ *  *  la *  *  ya *  *  nım   | 
d8 ggfg a4 z2 | z4f2 g2a4a6  | a4 a4 a4 a2{b}a2 g2 | \
w:  gel  SAZ  |  Ne  ka dar  ö  |  zen miş  se ni   | 
_b2 agg4z8-z2  | 
w:  ya ra *  dan    | 
a2gf f4 z8-z2 | g2 f2e4z8-z2  | f2e2 d8 a6 | \
w:  vay_ a *  man   |  vay_ a man   |  vay_ a man   | 
d4z4cc Bcd4z2  | 
w:  vay   SAZ  | 
B2c2 d4 z4 e3d cB | c12c2 B2A2  | f2g2 a4 a4 a6 | \
w:  Be ri  gel  gön *  lü  |  me   |  çağ *  la ya nım   | 
a2 c'2b2 a2g2 f2e2 d2c2  | 
w:  gel   | 
B2c2 d2e2 d2cB d2c2 B2 | A12z6  | |


